apps/www/public/images/ga/supabase-ga-visual.svg

<svg width="453" height="305" viewBox="0 0 453 305" fill="none" xmlns="http://www.w3.org/2000/svg">
<mask id="mask0_1031_8741" style="mask-type:alpha" maskUnits="userSpaceOnUse" x="122" y="54" width="209" height="209">
<circle cx="226.613" cy="158.147" r="104" fill="url(#paint0_radial_1031_8741)"/>
</mask>
<g mask="url(#mask0_1031_8741)">
<path d="M289.279 58.147V246.147M263.168 58.147V246.147M163.946 58.147V246.147M189.013 58.147V246.147M320.613 214.814L132.613 214.814M320.613 190.791L132.613 190.791M320.613 113.503L132.613 113.503M320.613 89.4803L132.613 89.4803" stroke="white" stroke-width="0.5"/>
</g>
<g opacity="0.9" filter="url(#filter0_bddi_1031_8741)">
<rect x="166.613" y="92.1392" width="120" height="120" rx="24" fill="#0F0F0F"/>
</g>
<g clip-path="url(#clip0_1031_8741)">
<path d="M232.185 187.185C230.333 189.532 226.576 188.246 226.532 185.25L225.879 141.425H255.175C260.481 141.425 263.441 147.59 260.141 151.77L232.185 187.185Z" fill="url(#paint1_linear_1031_8741)"/>
<path d="M232.185 187.185C230.333 189.532 226.576 188.246 226.532 185.25L225.879 141.425H255.175C260.481 141.425 263.441 147.59 260.141 151.77L232.185 187.185Z" fill="url(#paint2_linear_1031_8741)" fill-opacity="0.2"/>
<path d="M220.271 116.668C222.123 114.321 225.879 115.607 225.924 118.603L226.21 162.427H197.281C191.974 162.427 189.015 156.263 192.314 152.083L220.271 116.668Z" fill="#3ECF8E"/>
</g>
<g opacity="0.9" filter="url(#filter1_b_1031_8741)">
<path fill-rule="evenodd" clip-rule="evenodd" d="M206.898 89.7495H246.278C253.847 89.7495 259.494 89.7499 263.971 90.1157C268.442 90.481 271.703 91.2083 274.509 92.6378C279.495 95.1785 283.549 99.2325 286.09 104.219C287.519 107.024 288.246 110.285 288.612 114.757C288.978 119.234 288.978 124.881 288.978 132.45V171.83C288.978 179.399 288.978 185.045 288.612 189.523C288.246 193.994 287.519 197.255 286.09 200.06C283.549 205.047 279.495 209.101 274.509 211.641C271.703 213.071 268.442 213.798 263.971 214.163C259.494 214.529 253.847 214.53 246.278 214.53H206.898C199.329 214.53 193.682 214.529 189.205 214.163C184.734 213.798 181.473 213.071 178.667 211.641C173.681 209.101 169.627 205.047 167.086 200.06C165.657 197.255 164.929 193.994 164.564 189.522C164.198 185.045 164.198 179.399 164.198 171.83V132.449C164.198 124.881 164.198 119.234 164.564 114.757C164.929 110.285 165.657 107.024 167.086 104.219C169.627 99.2325 173.681 95.1785 178.667 92.6378C181.473 91.2083 184.734 90.481 189.205 90.1157C193.682 89.7499 199.329 89.7495 206.898 89.7495ZM163.698 132.449C163.698 117.328 163.698 109.767 166.641 103.992C169.229 98.9114 173.36 94.7809 178.44 92.1923C184.216 89.2495 191.776 89.2495 206.898 89.2495H246.278C261.399 89.2495 268.96 89.2495 274.736 92.1923C279.816 94.7809 283.947 98.9114 286.535 103.992C289.478 109.767 289.478 117.328 289.478 132.45V171.83C289.478 186.951 289.478 194.512 286.535 200.287C283.947 205.368 279.816 209.498 274.736 212.087C268.96 215.03 261.399 215.03 246.278 215.03H206.898C191.776 215.03 184.216 215.03 178.44 212.087C173.36 209.498 169.229 205.368 166.641 200.287C163.698 194.512 163.698 186.951 163.698 171.83V132.449ZM205.088 92.6167H248.288C255.017 92.6167 260.033 92.6171 264.01 92.9427C267.981 93.2678 270.872 93.9147 273.356 95.1832C277.778 97.4408 281.373 101.043 283.626 105.474C284.893 107.965 285.538 110.861 285.863 114.841C286.188 118.826 286.188 123.853 286.188 130.595V173.884C286.188 180.627 286.188 185.654 285.863 189.639C285.538 193.618 284.893 196.515 283.626 199.005C281.373 203.436 277.778 207.039 273.356 209.296C270.664 210.671 267.496 211.315 262.993 211.612H228.406H228.404L188.876 211.495C185.155 211.157 182.401 210.512 180.02 209.296C175.598 207.039 172.003 203.436 169.75 199.005C168.483 196.515 167.838 193.618 167.513 189.639C167.188 185.654 167.188 180.627 167.188 173.884V130.595C167.188 123.853 167.188 118.826 167.513 114.841C167.838 110.861 168.483 107.965 169.75 105.474C172.003 101.043 175.598 97.4408 180.02 95.1832C182.504 93.9147 185.395 93.2678 189.366 92.9427C193.343 92.6171 198.359 92.6167 205.088 92.6167ZM228.404 212.112H263.009C267.547 211.814 270.799 211.164 273.584 209.742C278.1 207.436 281.771 203.757 284.072 199.232C286.688 194.087 286.688 187.353 286.688 173.884V130.595C286.688 117.127 286.688 110.392 284.072 105.248C281.771 100.723 278.1 97.0436 273.584 94.7379C268.45 92.1167 261.729 92.1167 248.288 92.1167H205.088C191.647 92.1167 184.926 92.1167 179.792 94.7379C175.276 97.0436 171.605 100.723 169.304 105.248C166.688 110.392 166.688 117.127 166.688 130.595V173.884C166.688 187.353 166.688 194.087 169.304 199.232C171.605 203.757 175.276 207.436 179.792 209.742C182.257 211 185.088 211.655 188.853 211.995L228.404 212.112Z" fill="url(#paint3_linear_1031_8741)"/>
</g>
<g opacity="0.9" filter="url(#filter2_f_1031_8741)">
<path fill-rule="evenodd" clip-rule="evenodd" d="M206.898 89.7495H246.278C253.847 89.7495 259.494 89.7499 263.971 90.1157C268.442 90.481 271.703 91.2083 274.509 92.6378C279.495 95.1785 283.549 99.2325 286.09 104.219C287.519 107.024 288.246 110.285 288.612 114.757C288.978 119.234 288.978 124.881 288.978 132.45V171.83C288.978 179.399 288.978 185.045 288.612 189.523C288.246 193.994 287.519 197.255 286.09 200.06C283.549 205.047 279.495 209.101 274.509 211.641C271.703 213.071 268.442 213.798 263.971 214.163C259.494 214.529 253.847 214.53 246.278 214.53H206.898C199.329 214.53 193.682 214.529 189.205 214.163C184.734 213.798 181.473 213.071 178.667 211.641C173.681 209.101 169.627 205.047 167.086 200.06C165.657 197.255 164.929 193.994 164.564 189.522C164.198 185.045 164.198 179.399 164.198 171.83V132.449C164.198 124.881 164.198 119.234 164.564 114.757C164.929 110.285 165.657 107.024 167.086 104.219C169.627 99.2325 173.681 95.1785 178.667 92.6378C181.473 91.2083 184.734 90.481 189.205 90.1157C193.682 89.7499 199.329 89.7495 206.898 89.7495ZM163.698 132.449C163.698 117.328 163.698 109.767 166.641 103.992C169.229 98.9114 173.36 94.7809 178.44 92.1923C184.216 89.2495 191.776 89.2495 206.898 89.2495H246.278C261.399 89.2495 268.96 89.2495 274.736 92.1923C279.816 94.7809 283.947 98.9114 286.535 103.992C289.478 109.767 289.478 117.328 289.478 132.45V171.83C289.478 186.951 289.478 194.512 286.535 200.287C283.947 205.368 279.816 209.498 274.736 212.087C268.96 215.03 261.399 215.03 246.278 215.03H206.898C191.776 215.03 184.216 215.03 178.44 212.087C173.36 209.498 169.229 205.368 166.641 200.287C163.698 194.512 163.698 186.951 163.698 171.83V132.449ZM205.088 92.6167H248.288C255.017 92.6167 260.033 92.6171 264.01 92.9428C267.981 93.268 270.872 93.9151 273.356 95.1842C277.778 97.4427 281.373 101.047 283.626 105.479C284.893 107.971 285.538 110.868 285.863 114.849C286.188 118.836 286.188 123.865 286.188 130.61V173.916C286.188 180.661 286.188 185.69 285.863 189.677C285.538 193.658 284.893 196.556 283.626 199.047C281.373 203.48 277.778 207.083 273.356 209.342C270.664 210.717 267.496 211.362 262.993 211.658H228.406H228.404L188.876 211.541C185.155 211.203 182.401 210.558 180.02 209.342C175.598 207.083 172.003 203.48 169.75 199.047C168.483 196.556 167.838 193.658 167.513 189.677C167.188 185.69 167.188 180.661 167.188 173.916V130.61C167.188 123.865 167.188 118.836 167.513 114.849C167.838 110.868 168.483 107.971 169.75 105.479C172.003 101.047 175.598 97.4427 180.02 95.1842C182.504 93.9151 185.395 93.268 189.366 92.9428C193.343 92.6171 198.359 92.6167 205.088 92.6167ZM228.404 212.158H263.009C267.547 211.86 270.799 211.21 273.584 209.787C278.1 207.481 281.771 203.8 284.072 199.273C286.688 194.127 286.688 187.39 286.688 173.916V130.61C286.688 117.136 286.688 110.399 284.072 105.253C281.771 100.726 278.1 97.0455 273.584 94.7389C268.45 92.1167 261.729 92.1167 248.288 92.1167H205.088C191.647 92.1167 184.926 92.1167 179.792 94.7389C175.276 97.0455 171.605 100.726 169.304 105.253C166.688 110.399 166.688 117.136 166.688 130.61V173.916C166.688 187.39 166.688 194.127 169.304 199.273C171.605 203.8 175.276 207.481 179.792 209.787C182.257 211.046 185.088 211.701 188.853 212.041L228.404 212.158Z" fill="url(#paint4_linear_1031_8741)"/>
</g>
<g filter="url(#filter3_f_1031_8741)">
<path d="M163.801 124.364H164.068L164.475 140.034L164.068 155.704H163.801L163.248 140.034L163.801 124.364Z" fill="#CED0D0"/>
</g>
<g filter="url(#filter4_f_1031_8741)">
<path d="M166.801 140.364H167.068L167.475 156.034L167.068 171.704H166.801L166.248 156.034L166.801 140.364Z" fill="#CED0D0"/>
</g>
<defs>
<filter id="filter0_bddi_1031_8741" x="74.6128" y="0.13916" width="304" height="304" filterUnits="userSpaceOnUse" color-interpolation-filters="sRGB">
<feFlood flood-opacity="0" result="BackgroundImageFix"/>
<feGaussianBlur in="BackgroundImageFix" stdDeviation="4"/>
<feComposite in2="SourceAlpha" operator="in" result="effect1_backgroundBlur_1031_8741"/>
<feColorMatrix in="SourceAlpha" type="matrix" values="0 0 0 0 0 0 0 0 0 0 0 0 0 0 0 0 0 0 127 0" result="hardAlpha"/>
<feOffset/>
<feGaussianBlur stdDeviation="10"/>
<feComposite in2="hardAlpha" operator="out"/>
<feColorMatrix type="matrix" values="0 0 0 0 0.239216 0 0 0 0 0.796078 0 0 0 0 0.54902 0 0 0 1 0"/>
<feBlend mode="normal" in2="effect1_backgroundBlur_1031_8741" result="effect2_dropShadow_1031_8741"/>
<feColorMatrix in="SourceAlpha" type="matrix" values="0 0 0 0 0 0 0 0 0 0 0 0 0 0 0 0 0 0 127 0" result="hardAlpha"/>
<feOffset/>
<feGaussianBlur stdDeviation="46"/>
<feComposite in2="hardAlpha" operator="out"/>
<feColorMatrix type="matrix" values="0 0 0 0 0.239216 0 0 0 0 0.796078 0 0 0 0 0.54902 0 0 0 0.7 0"/>
<feBlend mode="normal" in2="effect2_dropShadow_1031_8741" result="effect3_dropShadow_1031_8741"/>
<feBlend mode="normal" in="SourceGraphic" in2="effect3_dropShadow_1031_8741" result="shape"/>
<feColorMatrix in="SourceAlpha" type="matrix" values="0 0 0 0 0 0 0 0 0 0 0 0 0 0 0 0 0 0 127 0" result="hardAlpha"/>
<feOffset dy="4"/>
<feGaussianBlur stdDeviation="10"/>
<feComposite in2="hardAlpha" operator="arithmetic" k2="-1" k3="1"/>
<feColorMatrix type="matrix" values="0 0 0 0 0 0 0 0 0 0 0 0 0 0 0 0 0 0 1 0"/>
<feBlend mode="normal" in2="shape" result="effect4_innerShadow_1031_8741"/>
</filter>
<filter id="filter1_b_1031_8741" x="155.698" y="81.2495" width="141.78" height="141.78" filterUnits="userSpaceOnUse" color-interpolation-filters="sRGB">
<feFlood flood-opacity="0" result="BackgroundImageFix"/>
<feGaussianBlur in="BackgroundImageFix" stdDeviation="4"/>
<feComposite in2="SourceAlpha" operator="in" result="effect1_backgroundBlur_1031_8741"/>
<feBlend mode="normal" in="SourceGraphic" in2="effect1_backgroundBlur_1031_8741" result="shape"/>
</filter>
<filter id="filter2_f_1031_8741" x="162.698" y="88.2495" width="127.78" height="127.78" filterUnits="userSpaceOnUse" color-interpolation-filters="sRGB">
<feFlood flood-opacity="0" result="BackgroundImageFix"/>
<feBlend mode="normal" in="SourceGraphic" in2="BackgroundImageFix" result="shape"/>
<feGaussianBlur stdDeviation="0.5" result="effect1_foregroundBlur_1031_8741"/>
</filter>
<filter id="filter3_f_1031_8741" x="162.248" y="123.364" width="3.227" height="33.3394" filterUnits="userSpaceOnUse" color-interpolation-filters="sRGB">
<feFlood flood-opacity="0" result="BackgroundImageFix"/>
<feBlend mode="normal" in="SourceGraphic" in2="BackgroundImageFix" result="shape"/>
<feGaussianBlur stdDeviation="0.5" result="effect1_foregroundBlur_1031_8741"/>
</filter>
<filter id="filter4_f_1031_8741" x="165.248" y="139.364" width="3.227" height="33.3394" filterUnits="userSpaceOnUse" color-interpolation-filters="sRGB">
<feFlood flood-opacity="0" result="BackgroundImageFix"/>
<feBlend mode="normal" in="SourceGraphic" in2="BackgroundImageFix" result="shape"/>
<feGaussianBlur stdDeviation="0.5" result="effect1_foregroundBlur_1031_8741"/>
</filter>
<radialGradient id="paint0_radial_1031_8741" cx="0" cy="0" r="1" gradientUnits="userSpaceOnUse" gradientTransform="translate(226.613 158.147) rotate(90) scale(97.5)">
<stop stop-color="white"/>
<stop offset="1" stop-opacity="0"/>
</radialGradient>
<linearGradient id="paint1_linear_1031_8741" x1="225.879" y1="151.142" x2="251.962" y2="162.018" gradientUnits="userSpaceOnUse">
<stop stop-color="#249361"/>
<stop offset="1" stop-color="#3ECF8E"/>
</linearGradient>
<linearGradient id="paint2_linear_1031_8741" x1="214.335" y1="135.245" x2="226.318" y2="157.67" gradientUnits="userSpaceOnUse">
<stop/>
<stop offset="1" stop-opacity="0"/>
</linearGradient>
<linearGradient id="paint3_linear_1031_8741" x1="183.218" y1="84.8799" x2="226.588" y2="215.03" gradientUnits="userSpaceOnUse">
<stop stop-color="white"/>
<stop offset="1" stop-color="white" stop-opacity="0.05"/>
</linearGradient>
<linearGradient id="paint4_linear_1031_8741" x1="183.218" y1="84.8799" x2="226.588" y2="215.03" gradientUnits="userSpaceOnUse">
<stop stop-color="white"/>
<stop offset="1" stop-color="white" stop-opacity="0.05"/>
</linearGradient>
<clipPath id="clip0_1031_8741">
<rect width="70.6169" height="73.6364" fill="white" transform="translate(190.912 115.318)"/>
</clipPath>
</defs>
</svg>

<svg xmlns="http://www.w3.org/2000/svg" width="453" height="305" fill="none" viewBox="0 0 453 305"><mask id="b" width="209" height="209" x="122" y="54" maskUnits="userSpaceOnUse" style="mask-type:alpha"><circle cx="226.613" cy="158.147" r="104" fill="url(#a)"/></mask><g mask="url(#b)"><path stroke="#fff" stroke-width=".5" d="M289.279 58.147v188m-26.111-188v188m-99.222-188v188m25.067-188v188m131.6-31.333h-188m188-24.023h-188m188-77.288h-188m188-24.023h-188"/></g><g filter="url(#c)" opacity=".9"><rect width="120" height="120" x="166.613" y="92.139" fill="#0f0f0f" rx="24"/></g><g clip-path="url(#d)"><path fill="url(#e)" d="M232.185 187.185c-1.852 2.347-5.609 1.061-5.653-1.935l-.653-43.825h29.296c5.306 0 8.266 6.165 4.966 10.345z"/><path fill="url(#f)" fill-opacity=".2" d="M232.185 187.185c-1.852 2.347-5.609 1.061-5.653-1.935l-.653-43.825h29.296c5.306 0 8.266 6.165 4.966 10.345z"/><path fill="#3ecf8e" d="M220.271 116.668c1.852-2.347 5.608-1.061 5.653 1.935l.286 43.824h-28.929c-5.307 0-8.266-6.164-4.967-10.344z"/></g><g filter="url(#g)" opacity=".9"><path fill="url(#h)" fill-rule="evenodd" d="M206.898 89.75h39.38c7.569 0 13.216 0 17.693.366 4.471.365 7.732 1.092 10.538 2.522a26.5 26.5 0 0 1 11.581 11.581c1.429 2.805 2.156 6.066 2.522 10.538.366 4.477.366 10.124.366 17.693v39.38c0 7.569 0 13.215-.366 17.693-.366 4.471-1.093 7.732-2.522 10.537a26.5 26.5 0 0 1-11.581 11.581c-2.806 1.43-6.067 2.157-10.538 2.522-4.477.366-10.124.367-17.693.367h-39.38c-7.569 0-13.216-.001-17.693-.367-4.471-.365-7.732-1.092-10.538-2.522a26.5 26.5 0 0 1-11.581-11.581c-1.429-2.805-2.157-6.066-2.522-10.538-.366-4.477-.366-10.123-.366-17.692v-39.381c0-7.568 0-13.215.366-17.692.365-4.472 1.093-7.733 2.522-10.538a26.5 26.5 0 0 1 11.581-11.581c2.806-1.43 6.067-2.157 10.538-2.522 4.477-.366 10.124-.367 17.693-.367m-43.2 42.699c0-15.121 0-22.682 2.943-28.457a27 27 0 0 1 11.799-11.8c5.776-2.942 13.336-2.942 28.458-2.942h39.38c15.121 0 22.682 0 28.458 2.942a27 27 0 0 1 11.799 11.8c2.943 5.775 2.943 13.336 2.943 28.458v39.38c0 15.121 0 22.682-2.943 28.457a27 27 0 0 1-11.799 11.8c-5.776 2.943-13.337 2.943-28.458 2.943h-39.38c-15.122 0-22.682 0-28.458-2.943a27 27 0 0 1-11.799-11.8c-2.943-5.775-2.943-13.336-2.943-28.457zm41.39-39.832h43.2c6.729 0 11.745 0 15.722.326 3.971.325 6.862.972 9.346 2.24a23.52 23.52 0 0 1 10.27 10.291c1.267 2.491 1.912 5.387 2.237 9.367.325 3.985.325 9.012.325 15.754v43.289c0 6.743 0 11.77-.325 15.755-.325 3.979-.97 6.876-2.237 9.366a23.52 23.52 0 0 1-10.27 10.291c-2.692 1.375-5.86 2.019-10.363 2.316h-34.589l-39.528-.117c-3.721-.338-6.475-.983-8.856-2.199a23.52 23.52 0 0 1-10.27-10.291c-1.267-2.49-1.912-5.387-2.237-9.366-.325-3.985-.325-9.012-.325-15.755v-43.289c0-6.742 0-11.769.325-15.754.325-3.98.97-6.876 2.237-9.367a23.52 23.52 0 0 1 10.27-10.29c2.484-1.27 5.375-1.916 9.346-2.241 3.977-.326 8.993-.326 15.722-.326m23.316 119.495h34.605c4.538-.298 7.79-.948 10.575-2.37a24.03 24.03 0 0 0 10.488-10.51c2.616-5.145 2.616-11.879 2.616-25.348v-43.289c0-13.468 0-20.203-2.616-25.347a24.03 24.03 0 0 0-10.488-10.51c-5.134-2.621-11.855-2.621-25.296-2.621h-43.2c-13.441 0-20.162 0-25.296 2.62a24.03 24.03 0 0 0-10.488 10.511c-2.616 5.144-2.616 11.879-2.616 25.347v43.289c0 13.469 0 20.203 2.616 25.348a24.03 24.03 0 0 0 10.488 10.51c2.465 1.258 5.296 1.913 9.061 2.253z" clip-rule="evenodd"/></g><g filter="url(#i)" opacity=".9"><path fill="url(#j)" fill-rule="evenodd" d="M206.898 89.75h39.38c7.569 0 13.216 0 17.693.366 4.471.365 7.732 1.092 10.538 2.522a26.5 26.5 0 0 1 11.581 11.581c1.429 2.805 2.156 6.066 2.522 10.538.366 4.477.366 10.124.366 17.693v39.38c0 7.569 0 13.215-.366 17.693-.366 4.471-1.093 7.732-2.522 10.537a26.5 26.5 0 0 1-11.581 11.581c-2.806 1.43-6.067 2.157-10.538 2.522-4.477.366-10.124.367-17.693.367h-39.38c-7.569 0-13.216-.001-17.693-.367-4.471-.365-7.732-1.092-10.538-2.522a26.5 26.5 0 0 1-11.581-11.581c-1.429-2.805-2.157-6.066-2.522-10.538-.366-4.477-.366-10.123-.366-17.692v-39.381c0-7.568 0-13.215.366-17.692.365-4.472 1.093-7.733 2.522-10.538a26.5 26.5 0 0 1 11.581-11.581c2.806-1.43 6.067-2.157 10.538-2.522 4.477-.366 10.124-.367 17.693-.367m-43.2 42.699c0-15.121 0-22.682 2.943-28.457a27 27 0 0 1 11.799-11.8c5.776-2.942 13.336-2.942 28.458-2.942h39.38c15.121 0 22.682 0 28.458 2.942a27 27 0 0 1 11.799 11.8c2.943 5.775 2.943 13.336 2.943 28.458v39.38c0 15.121 0 22.682-2.943 28.457a27 27 0 0 1-11.799 11.8c-5.776 2.943-13.337 2.943-28.458 2.943h-39.38c-15.122 0-22.682 0-28.458-2.943a27 27 0 0 1-11.799-11.8c-2.943-5.775-2.943-13.336-2.943-28.457zm41.39-39.832h43.2c6.729 0 11.745 0 15.722.326 3.971.325 6.862.972 9.346 2.241a23.53 23.53 0 0 1 10.27 10.295c1.267 2.492 1.912 5.389 2.237 9.37.325 3.987.325 9.016.325 15.761v43.306c0 6.745 0 11.774-.325 15.761-.325 3.981-.97 6.879-2.237 9.37a23.53 23.53 0 0 1-10.27 10.295c-2.692 1.375-5.86 2.02-10.363 2.316h-34.589l-39.528-.117c-3.721-.338-6.475-.983-8.856-2.199a23.53 23.53 0 0 1-10.27-10.295c-1.267-2.491-1.912-5.389-2.237-9.37-.325-3.987-.325-9.016-.325-15.761V130.61c0-6.745 0-11.774.325-15.761.325-3.981.97-6.878 2.237-9.37a23.53 23.53 0 0 1 10.27-10.295c2.484-1.269 5.375-1.916 9.346-2.241 3.977-.326 8.993-.326 15.722-.326m23.316 119.541h34.605c4.538-.298 7.79-.948 10.575-2.371a24.03 24.03 0 0 0 10.488-10.514c2.616-5.146 2.616-11.883 2.616-25.357V130.61c0-13.474 0-20.211-2.616-25.357a24.03 24.03 0 0 0-10.488-10.514c-5.134-2.622-11.855-2.622-25.296-2.622h-43.2c-13.441 0-20.162 0-25.296 2.622a24.03 24.03 0 0 0-10.488 10.514c-2.616 5.146-2.616 11.883-2.616 25.357v43.306c0 13.474 0 20.211 2.616 25.357a24.03 24.03 0 0 0 10.488 10.514c2.465 1.259 5.296 1.914 9.061 2.254z" clip-rule="evenodd"/></g><g filter="url(#k)"><path fill="#ced0d0" d="M163.801 124.364h.267l.407 15.67-.407 15.67h-.267l-.553-15.67z"/></g><g filter="url(#l)"><path fill="#ced0d0" d="M166.801 140.364h.267l.407 15.67-.407 15.67h-.267l-.553-15.67z"/></g><defs><filter id="c" width="304" height="304" x="74.613" y=".139" color-interpolation-filters="sRGB" filterUnits="userSpaceOnUse"><feFlood flood-opacity="0" result="BackgroundImageFix"/><feGaussianBlur in="BackgroundImageFix" stdDeviation="4"/><feComposite in2="SourceAlpha" operator="in" result="effect1_backgroundBlur_1031_8741"/><feColorMatrix in="SourceAlpha" result="hardAlpha" values="0 0 0 0 0 0 0 0 0 0 0 0 0 0 0 0 0 0 127 0"/><feOffset/><feGaussianBlur stdDeviation="10"/><feComposite in2="hardAlpha" operator="out"/><feColorMatrix values="0 0 0 0 0.239216 0 0 0 0 0.796078 0 0 0 0 0.54902 0 0 0 1 0"/><feBlend in2="effect1_backgroundBlur_1031_8741" result="effect2_dropShadow_1031_8741"/><feColorMatrix in="SourceAlpha" result="hardAlpha" values="0 0 0 0 0 0 0 0 0 0 0 0 0 0 0 0 0 0 127 0"/><feOffset/><feGaussianBlur stdDeviation="46"/><feComposite in2="hardAlpha" operator="out"/><feColorMatrix values="0 0 0 0 0.239216 0 0 0 0 0.796078 0 0 0 0 0.54902 0 0 0 0.7 0"/><feBlend in2="effect2_dropShadow_1031_8741" result="effect3_dropShadow_1031_8741"/><feBlend in="SourceGraphic" in2="effect3_dropShadow_1031_8741" result="shape"/><feColorMatrix in="SourceAlpha" result="hardAlpha" values="0 0 0 0 0 0 0 0 0 0 0 0 0 0 0 0 0 0 127 0"/><feOffset dy="4"/><feGaussianBlur stdDeviation="10"/><feComposite in2="hardAlpha" k2="-1" k3="1" operator="arithmetic"/><feColorMatrix values="0 0 0 0 0 0 0 0 0 0 0 0 0 0 0 0 0 0 1 0"/><feBlend in2="shape" result="effect4_innerShadow_1031_8741"/></filter><filter id="g" width="141.78" height="141.78" x="155.698" y="81.249" color-interpolation-filters="sRGB" filterUnits="userSpaceOnUse"><feFlood flood-opacity="0" result="BackgroundImageFix"/><feGaussianBlur in="BackgroundImageFix" stdDeviation="4"/><feComposite in2="SourceAlpha" operator="in" result="effect1_backgroundBlur_1031_8741"/><feBlend in="SourceGraphic" in2="effect1_backgroundBlur_1031_8741" result="shape"/></filter><filter id="i" width="127.78" height="127.78" x="162.698" y="88.249" color-interpolation-filters="sRGB" filterUnits="userSpaceOnUse"><feFlood flood-opacity="0" result="BackgroundImageFix"/><feBlend in="SourceGraphic" in2="BackgroundImageFix" result="shape"/><feGaussianBlur result="effect1_foregroundBlur_1031_8741" stdDeviation=".5"/></filter><filter id="k" width="3.227" height="33.339" x="162.248" y="123.364" color-interpolation-filters="sRGB" filterUnits="userSpaceOnUse"><feFlood flood-opacity="0" result="BackgroundImageFix"/><feBlend in="SourceGraphic" in2="BackgroundImageFix" result="shape"/><feGaussianBlur result="effect1_foregroundBlur_1031_8741" stdDeviation=".5"/></filter><filter id="l" width="3.227" height="33.339" x="165.248" y="139.364" color-interpolation-filters="sRGB" filterUnits="userSpaceOnUse"><feFlood flood-opacity="0" result="BackgroundImageFix"/><feBlend in="SourceGraphic" in2="BackgroundImageFix" result="shape"/><feGaussianBlur result="effect1_foregroundBlur_1031_8741" stdDeviation=".5"/></filter><linearGradient id="e" x1="225.879" x2="251.962" y1="151.142" y2="162.018" gradientUnits="userSpaceOnUse"><stop stop-color="#249361"/><stop offset="1" stop-color="#3ecf8e"/></linearGradient><linearGradient id="f" x1="214.335" x2="226.318" y1="135.245" y2="157.67" gradientUnits="userSpaceOnUse"><stop/><stop offset="1" stop-opacity="0"/></linearGradient><linearGradient id="h" x1="183.218" x2="226.588" y1="84.88" y2="215.03" gradientUnits="userSpaceOnUse"><stop stop-color="#fff"/><stop offset="1" stop-color="#fff" stop-opacity=".05"/></linearGradient><linearGradient id="j" x1="183.218" x2="226.588" y1="84.88" y2="215.03" gradientUnits="userSpaceOnUse"><stop stop-color="#fff"/><stop offset="1" stop-color="#fff" stop-opacity=".05"/></linearGradient><radialGradient id="a" cx="0" cy="0" r="1" gradientTransform="rotate(90 34.233 192.38)scale(97.5)" gradientUnits="userSpaceOnUse"><stop stop-color="#fff"/><stop offset="1" stop-opacity="0"/></radialGradient><clipPath id="d"><path fill="#fff" d="M190.912 115.318h70.617v73.636h-70.617z"/></clipPath></defs></svg>
